X: 1
T:N°83 Anglaisse
C:trad
O:Belgium
S:JAMIN manuscript page 50-051
Z:ABC transcription Olivier VIENNE troubadourwallon@gmail.com
M:2/4
L:1/16
K:Gmaj
Bc|d2d2 d2ef|g2>f2 e2dc|B2B2 BdcA|G2B2 D2
Bc|d2d2 d2(ef)|g2>f2 e2dc|B2B2 BdcA|G2B2 G2:|
|:AB|cAFD cAFD|dBGD dBGD|cAFD cAFD|GABc defg|
e2e2 efge|d2d2 defg|dgfe dcBA|G2B2 G2"2fois":|]:





